X:1
T:Responses to the Law - Byrd
T:James Gibb editions
T:Lord, have mercy upon us - Byrd
T:#
%%score [ 1 2 3 4 ]
L:1/8
Q:1/4=80
M:none
K:Ab
V:1 treble nm="Midi_74" snm=" "
V:2 treble nm="Midi_74"
V:3 treble-8 nm="Midi_74"
V:4 bass nm="Midi_74"
V:1
"^Lord, have mercy upon us""^William Byrd\n(1538-1623)" c6 c2 e4 | d2 c3 (B A2) G4 || %2
w: Lord, have mer-|cy u- pon * us,|
 G2 G2 c4 B2 A3 G F4 =E2 F8 | c6 c2 e4 |[M:2/2] d2 c3 (d B2) | c2 c2 B2 A2 |[M:2/2] G3 G F2 AA | %7
w: and in- cline our hearts to keep this law.|Lord, have mer-|cy u- pon *|us, and write all|these thy laws in our|
 G2 F3 F =E2 | F2 d4 c2 | B4 =A8 |] %10
w: hearts, we be- seech|thee, we be-|seech thee.|
V:2
 A6 A2 G4 | A2 A3 (G F2) =E4 || E2 B2 A3 G F3 E (D2 C4) C2 C8 | A6 A2 G4 |[M:2/2] A2 A3 (G/F/ G2) | %5
w: Lord, have mer-|cy u- pon * us,|and in- cline our hearts to keep * this law.|Lord, have mer-|cy u- pon * *|
 A2 A2 G2 F2 |[M:2/2] F2 =E2 F2 _EE | E2 CD C4 | C2 F4 F2 | F4 F8 |] %10
w: us, and write all|these thy laws in our|hearts, we be- seech|thee, we be-|seech thee.|
V:3
 c6 c2 c4 | A2 c4 c2 c4 || B2 B2 (cd e2) d2 c3 (B A2) G2 G2 F8 | c6 f2 (e2 c2) | %4
w: Lord, have mer-|cy u- pon us,|and in- cline * * our hearts to * keep this law.|Lord, have mer\- *|
[M:2/2] f2 c2 (d2 B2) | e2 e2 e2 c2 |[M:2/2][K:treble-8] c3 c c2 cc | B2 AG G4 | =A2 B4 c2 | %9
w: cy u- pon *|us, and write all|these thy laws in our|hearts, we be- seech|thee, we be-|
 (d2 B2) c8 |] %10
w: seech * thee.|
V:4
 F,6 F,2 C4 | F,2 A,3 (E, F,2) C,4 || E,2 E,2 A,4 D,2 F,2- F,2 F,2 C,2 C,2 F,8 | F,6 F,2 C4 | %4
w: Lord, have mer-|cy u- pon * us,|and in- cline our hearts * to keep this law.|Lord, have mer-|
[M:2/2] F,2 F,2 B,4 | A,2 A,2 E,2 F,2 |[M:2/2] C,3 C, F,2 C,C, | E,2 A,,B,, C,4 | F,2 B,,4 =A,,2 | %9
w: cy u- pon|us, and write all|these thy laws in our|hearts, we be- seech|thee, we be-|
 B,,4 F,,8 |] %10
w: seech thee.|

